X: 1584
T: Piyâle Elde Ne Dem
C: Dellalzâde İsmail Efendi
O: Turkey
F: http://compmusic.upf.edu/node/140
N: yegah--agirsemai--aksaksemai--piyale_elde--dellalzade_haci_ismail_efendi
N: makam= yegah
N: form= agirsemai
N: usul= aksaksemai = 10/8
M: 10/8
L: 1/16
K: C _2/4B ^f  
Q: 1/4=114
%%MIDI tuningsystem comma53
d4 A2d4e2 d2cd c2B2  | .A4 g2^3/4f3de3/2=f/ edd4z2  | \
w:  Ah  pi yâ *  le  el  |  de  ne  dem   | 
g4 g2g2 g^3/4fed efg6  | 
w:  bez mi me  *  *  *  *  *  ha bib   | 
^3/4f2{g}fg abc'2 baa3gag f^3/4e.f2  | \
w:  *  *  *  *  *  *  *  *  *  *  ge lir    | 
^3/4f4 e2fg fgfa gfg3/2f/ e2z2  | 
w:  Şevk le re  *  *  *  mâ *  *  *  ye   | 
e3^3/4f d2e=f edag fed4z2  | d4 c2d3cd3/2c/ d=fed cdcB  | 
w:  öm *  re  ser *  *  *  mâ *  *  *  ye   |  ten le re  *  can *  *  *  dır    | 
c3B eddc2BBA {c}BAA4z2  | G2A2 A2dc2BBA2BAG ^3/4F^3/4E.F2  | 
w:  Can *  da  *  mih *  *  man *  *  *  *  dır   |  yâ  *  *  *  *  *  *  *  me ded   | 
^3/4F4 EFAG FEDE FGA4z2  | ^3/4F4 D2E6 G2F4ED  | \
w:  ah   |  ah  ha bib  ge lir   | 
D4 d2d3ccB Bcd4z2  | 
w:  vay   SAZ  | 
d4 A2d4e2 d2cd c2B2  | .A4 g2^3/4f3de3/2=f/ edd4z2  | \
w:  Ah  pi yâ *  le  el  |  de  ne  dem   | 
g4 g2g2 g^3/4fed efg6  | 
w:  bez mi me  *  *  *  *  *  ha bib   | 
^3/4f2{g}fg abc'2 baa3gag f^3/4e.f2  | \
w:  *  *  *  *  *  *  *  *  *  *  ge lir    | 
^3/4f4 e2fg fgfa gfg3/2f/ e2z2  | 
w:  Şevk le re  *  *  *  mâ *  *  *  ye   | 
e3^3/4f d2e=f edag fed4z2  | d4 c2d3cd3/2c/ d=fed cdcB  | 
w:  öm *  re  ser *  *  *  mâ *  *  *  ye   |  ten le re  *  can *  *  *  dır    | 
c3B eddc2BBA {c}BAA4z2  | G2A2 A2dc2BBA2BAG ^3/4F^3/4E.F2  | 
w:  Can *  da  *  mih *  *  man *  *  *  *  dır   |  yâ  *  *  *  *  *  *  *  me ded   | 
^3/4F4 EFAG FEDE FGA4z2  | ^3/4F4 D2E6 G2F4ED  | \
w:  ah   |  ah  ha bib  ge lir   | 
D4 A2d4^3/4e4^3/4f4z2  | 
w:  vay   SAZ  | 
^3/4f4 f2f3gfe defg f2e2  | ^3/4f3e aggf2eed {f}edd4z2  | 
w:  Ah  na zîm_ *  i  *  *  *  has  |  ta  *  *  *  de *  *  rû *  *  *  *  na   | 
d4 A2d4e2 {^3/4f}edcd c2B2  | c3B eddc2BBA {c}BAA4z2  | 
w:  ah  i lâc_ *  *  e *  den   |  bu *  lu *  nur  *  *  *  *  *  *  *  vay    | 
A4 A2A2 d2c3BA2 G2^3/4FE  | ^3/4F3E AGGF2EE3/2F/ EDD4z2  | 
w:  Şevk le re  *  mâ *  ye   |  öm *  re  *  ser *  *  mâ *  *  *  ye   | 
^3/4f4 ^3/4e2f3ef3/2e/ fggf =edcB  | \
w:  ten le re  *  can *  *  *  dır   | 
c3B agg^3/4f2eed edd4z2  | 
w:  Can *  da  *  mih *  *  man *  *  *  dır   | 
c2d2 d2g=f2eed2edc BdcB  | c4 cBc3Bed cB.c6  | 
w:  ya  *  *  *  *  *  *  *  me ded   |  ah   | 
B4 c2g3^2/4fe2 =f2ed ^3/4c=BA2  | \
w:  ah  e den  *  bu lu nur   | 
^3/4c2d2 d2e=f eded {e}d=cd4z2  | 
w:  vay    | 
d4 A2d4e2 d2cd c2B2  | .A4 g2^3/4f3de3/2=f/ edd4z2  | \
w:  Ah  pi yâ *  le  el  |  de  ne  dem   | 
g4 g2g2 g^3/4fed efg6  | 
w:  bez mi me  *  *  *  *  *  ha bib   | 
^3/4f2{g}fg abc'2 baa3gag f^3/4e.f2  | \
w:  *  *  *  *  *  *  *  *  *  *  ge lir    | 
^3/4f4 e2fg fgfa gfg3/2f/ e2z2  | 
w:  Şevk le re  *  *  *  mâ *  *  *  ye   | 
e3^3/4f d2e=f edag fed4z2  | d4 c2d3cd3/2c/ d=fed cdcB  | 
w:  öm *  re  ser *  *  *  mâ *  *  *  ye   |  ten le re  *  can *  *  *  dır    | 
c3B eddc2BBA {c}BAA4z2  | G2A2 A2dc2BBA2BAG ^3/4F^3/4E.F2  | 
w:  Can *  da  *  mih *  *  man *  *  *  *  dır   |  yâ  *  *  *  *  *  *  *  me ded   | 
^3/4F4 EFAG FEDE FGA4z2  | ^3/4F4 D2E6 G2F4ED  | \
w:  ah   |  ah  ha bib  ge lir   | 
D18z2  | 
w:  vay    | 
|


